X:912
T:Engelska efter Per Nilsson Dahlberg
T:(SvL Skåne nr. 173)
S:efter Per Nilsson Dahlberg
S:Svenska Låtar Skåne nr 173
B:Svenska Låtar Skåne
R:Engelska
Z:Patrik Månsson, 2009-01-03
O:Nymö, Skåne
M:2/4
L:1/16
K:F
|: fcAc BdcB | AFAc BdcB | AFAc cBAB | !trill!(A2G2) G4 |
fcAc BdcB | AFAc BdcB | ABcd e(fg)e | f2a2 f4 :|
|: gece gbag | afef cfga | bagf gfed | !trill!(d2c2) c4 |
dBFB dfed | cAFA cfed | cfed cBAG | !trill!(G2F2) F4 :|
(:musicend:)

Melodien till denna engelska har även påträffats i en handskrift från förra delen av 1800-talet, vilken ingår i [[JohnEnninger|John Enningers]] musikaliska kvarlåtenskap under namnet Ecossais, en urpsrungligen skotsk figurdans, närstående anglaisen. (SvL)



(:music:)
